X:1
T:Title
%%score { ( 1 3 ) | ( 2 4 ) }
L:1/8
Q:1/4=100
M:6/8
K:Db
V:1 treble nm="Grand Piano"
V:3 treble 
V:2 bass 
V:4 bass 
V:1
 FED FGA | .G3 [Gc]3 | GFE GAB | .A3 [Fd]3 | [Fd]cB [FA]Bd | [Ec]2 [Ae] [Ae]3 | [=Ge]dc B2 c | %7
w: Howard~E.~Smith * * * * *|||||||
 [CA]6 | [Fd]3 [Fc]3 | [GB]3 z3 | [Ac]3 z3 | [FA]3- [FA]2 E, | F_F=F A=GA | z3 [Ge]3[K:bass] | %14
w: |||||||
 d3 c3 | d6 |] %16
w: ||
V:2
 D,[F,A,][F,A,] A,,[A,D][A,D] | E,[G,A,][G,A,CG] A,,G,G, | E,[G,A,C][G,A,C] A,,[G,A,C][G,A,C] | %3
 D,[F,A,][F,A,DF] A,,F,F, | z[K:treble] [EF][DF][K:bass] z F_F | E,A,C E,A,C | %6
 z[K:treble] FE[K:bass] D2 D | A,B,A, G,F,E, | D,F,F, A,,F,F, | E,G,G, CDE | E,G,G, A,,B,,C, | %11
 D,F,B, A, .F,2 | [D,A,D]3 .[F,_CD]3 | [G,B,D]3 .[E,B,]2 G, | [A,F][A,D][A,F] .[A,EG]2[K:bass] A, | %15
 z CB, .A,3 |] %16
V:3
 x6 | z Cc z [A,C][A,C] | x6 | z Dd z [A,D][A,D] | x6 | x6 | x6 | x6 | z [A,D][A,D] z [A,D][A,D] | %9
 z [A,C][A,C] EFG | z [A,C][A,C] [GB]3 | x6 | x6 | B=AB z[K:bass] F,=A, | z BA z C[EG] | %15
 [DF]AG .F3 |] %16
V:4
 x6 | x6 | x6 | x6 | [B,,B,]3[K:treble][K:bass] [D,A,]3 | x6 | [E,B,]3[K:treble][K:bass] [E,=G,]3 | %7
 x6 | x6 | x6 | x6 | x6 | x6 | x6 | x5[K:bass] x | D,6 |] %16

